X: 39626
T: Tempest, The
R: reel
M: 4/4
K: Cmajor
|:d2 cA GE E2|DEGE cE E2|AdcA GEcE|EDCD EDDc|
dBcA GE E2|DG G2 AE E2|DEGA ABcE|EDCE D3 c:|
|:d3 B cAGc|AdcA GE E2|dged cdeg|edcA d3 g|
e2 dg edcA|cAGc AE E2|DEGA ABcE|EDCE D3 c:|

